icons/TrainWagon_2_filled.svg

<svg width="24" height="24" viewBox="0 0 24 24" fill="none" xmlns="http://www.w3.org/2000/svg">
<path fill-rule="evenodd" clip-rule="evenodd" d="M20,4.25c0.4142,0 0.75,0.33579 0.75,0.75v9h0.25c0.4142,0 0.75,0.3358 0.75,0.75c0,0.4142 -0.3358,0.75 -0.75,0.75h-1h-1.2637c0.009,0.0821 0.0137,0.1655 0.0137,0.25c0,1.2426 -1.0074,2.25 -2.25,2.25c-1.2426,0 -2.25,-1.0074 -2.25,-2.25c0,-0.0845 0.0047,-0.1679 0.0137,-0.25h-4.52743c0.00907,0.0821 0.01373,0.1655 0.01373,0.25c0,1.2426 -1.00736,2.25 -2.25,2.25c-1.24264,0 -2.25,-1.0074 -2.25,-2.25c0,-0.0845 0.00466,-0.1679 0.01373,-0.25h-1.26373h-1c-0.41421,0 -0.75,-0.3358 -0.75,-0.75c0,-0.4142 0.33579,-0.75 0.75,-0.75h0.25v-9c0,-0.41421 0.33579,-0.75 0.75,-0.75zM6.79268,15.5c-0.02764,0.0782 -0.04268,0.1623 -0.04268,0.25c0,0.4142 0.33579,0.75 0.75,0.75c0.41421,0 0.75,-0.3358 0.75,-0.75c0,-0.0877 -0.01504,-0.1718 -0.04268,-0.25zM15.7927,15.5c-0.0277,0.0782 -0.0427,0.1623 -0.0427,0.25c0,0.4142 0.3358,0.75 0.75,0.75c0.4142,0 0.75,-0.3358 0.75,-0.75c0,-0.0877 -0.015,-0.1718 -0.0427,-0.25zM7.5,18h9h5.5c0.4142,0 0.75,0.3358 0.75,0.75c0,0.4142 -0.3358,0.75 -0.75,0.75h-20c-0.41421,0 -0.75,-0.3358 -0.75,-0.75c0,-0.4142 0.33579,-0.75 0.75,-0.75zM6.75,7.25v5c0,0.4142 0.33579,0.75 0.75,0.75c0.41421,0 0.75,-0.3358 0.75,-0.75v-5c0,-0.41421 -0.33579,-0.75 -0.75,-0.75c-0.41421,0 -0.75,0.33579 -0.75,0.75zM9.75,7.25v5c0,0.4142 0.3358,0.75 0.75,0.75c0.4142,0 0.75,-0.3358 0.75,-0.75v-5c0,-0.41421 -0.3358,-0.75 -0.75,-0.75c-0.4142,0 -0.75,0.33579 -0.75,0.75zM14.25,7.25c0,-0.41421 -0.3358,-0.75 -0.75,-0.75c-0.4142,0 -0.75,0.33579 -0.75,0.75v5c0,0.4142 0.3358,0.75 0.75,0.75c0.4142,0 0.75,-0.3358 0.75,-0.75zM15.75,7.25v5c0,0.4142 0.3358,0.75 0.75,0.75c0.4142,0 0.75,-0.3358 0.75,-0.75v-5c0,-0.41421 -0.3358,-0.75 -0.75,-0.75c-0.4142,0 -0.75,0.33579 -0.75,0.75z" fill="#002B51"/>
</svg>

<svg width="24" height="24" viewBox="0 0 24 24" fill="none" xmlns="http://www.w3.org/2000/svg">
<path fill-rule="evenodd" clip-rule="evenodd" d="M20 4.25C20.4142 4.25 20.75 4.58579 20.75 5V14H21C21.4142 14 21.75 14.3358 21.75 14.75C21.75 15.1642 21.4142 15.5 21 15.5H20H18.7363C18.7453 15.5821 18.75 15.6655 18.75 15.75C18.75 16.9926 17.7426 18 16.5 18C15.2574 18 14.25 16.9926 14.25 15.75C14.25 15.6655 14.2547 15.5821 14.2637 15.5H9.73627C9.74534 15.5821 9.75 15.6655 9.75 15.75C9.75 16.9926 8.74264 18 7.5 18C6.25736 18 5.25 16.9926 5.25 15.75C5.25 15.6655 5.25466 15.5821 5.26373 15.5H4H3C2.58579 15.5 2.25 15.1642 2.25 14.75C2.25 14.3358 2.58579 14 3 14H3.25V5C3.25 4.58579 3.58579 4.25 4 4.25H20ZM6.79268 15.5C6.76504 15.5782 6.75 15.6623 6.75 15.75C6.75 16.1642 7.08579 16.5 7.5 16.5C7.91421 16.5 8.25 16.1642 8.25 15.75C8.25 15.6623 8.23496 15.5782 8.20732 15.5H6.79268ZM15.7927 15.5C15.765 15.5782 15.75 15.6623 15.75 15.75C15.75 16.1642 16.0858 16.5 16.5 16.5C16.9142 16.5 17.25 16.1642 17.25 15.75C17.25 15.6623 17.235 15.5782 17.2073 15.5H15.7927ZM7.5 18H16.5H22C22.4142 18 22.75 18.3358 22.75 18.75C22.75 19.1642 22.4142 19.5 22 19.5H2C1.58579 19.5 1.25 19.1642 1.25 18.75C1.25 18.3358 1.58579 18 2 18H7.5ZM7.5 6.5C7.91421 6.5 8.25 6.83579 8.25 7.25V12.25C8.25 12.6642 7.91421 13 7.5 13C7.08579 13 6.75 12.6642 6.75 12.25V7.25C6.75 6.83579 7.08579 6.5 7.5 6.5ZM10.5 6.5C10.9142 6.5 11.25 6.83579 11.25 7.25V12.25C11.25 12.6642 10.9142 13 10.5 13C10.0858 13 9.75 12.6642 9.75 12.25V7.25C9.75 6.83579 10.0858 6.5 10.5 6.5ZM14.25 7.25C14.25 6.83579 13.9142 6.5 13.5 6.5C13.0858 6.5 12.75 6.83579 12.75 7.25V12.25C12.75 12.6642 13.0858 13 13.5 13C13.9142 13 14.25 12.6642 14.25 12.25V7.25ZM16.5 6.5C16.9142 6.5 17.25 6.83579 17.25 7.25V12.25C17.25 12.6642 16.9142 13 16.5 13C16.0858 13 15.75 12.6642 15.75 12.25V7.25C15.75 6.83579 16.0858 6.5 16.5 6.5Z" fill="#002B51"/>
</svg>
